_includes/icons/color-google-plus.svg

<svg fill="#666" height="50" viewBox="0 0 48 48" width="50" xmlns="http://www.w3.org/2000/svg"><circle cx="24" cy="24" fill="#f4511e" r="20"/><g fill="#fff"><path d="m34 19h2v8h-2z"/><path d="m31 22h8v2h-8z"/><path d="m27.815 22.2-.05-.2h-8.765v3h5.91c-.477 2.837-2.938 5-5.91 5-3.314 0-6-2.686-6-6s2.686-6 6-6c1.5 0 2.868.554 3.92 1.465l2.151-2.106c-1.6-1.465-3.731-2.359-6.071-2.359-4.971 0-9 4.029-9 9s4.029 9 9 9 9-4.029 9-9c0-.617-.066-1.218-.185-1.8z"/></g></svg>

<svg xmlns="http://www.w3.org/2000/svg" viewBox="0 0 48 48" width="50" height="50" fill="#666"><circle cx="24" cy="24" r="20" fill="#f4511e"/><path fill="#fff" d="M34 19H36V27H34z"/><path fill="#fff" d="M31 22H39V24H31z"/><path d="M27.815,22.2l-0.05-0.2H19v3h5.91c-0.477,2.837-2.938,5-5.91,5c-3.314,0-6-2.686-6-6s2.686-6,6-6	c1.5,0,2.868,0.554,3.92,1.465l2.151-2.106C23.471,15.894,21.34,15,19,15c-4.971,0-9,4.029-9,9s4.029,9,9,9s9-4.029,9-9	C28,23.383,27.934,22.782,27.815,22.2z" fill="#fff"/></svg>
